X: 368
M: 6/8
L: 1/8
K: D
V: 1
|: A/B/ |\
c2d ecA | g2e f2d | cde dcB | ABG AFD |\
V: 2 clef=bass middle=d
z |\
d3 D3 | d3 D3  | d3  f3  | a3  A3 |\
d3 D3 | d3 fge | f2d c2d | a2A d2 :|
|: z |\
d3 D3 | a3   A3   | g3 d3 | a2A d2 :|

